svg/editor/at_line.svg

<?xml version="1.0" encoding="UTF-8"?>
<svg width="24px" height="24px" viewBox="0 0 24 24" version="1.1" xmlns="http://www.w3.org/2000/svg" xmlns:xlink="http://www.w3.org/1999/xlink">
    <title>at_line</title>
    <g id="页面-1" stroke="none" stroke-width="1" fill="none" fill-rule="evenodd">
        <g id="Editor" transform="translate(-1200.000000, 0.000000)">
            <g id="at_line" transform="translate(1200.000000, 0.000000)">
                 <path d="M24,0 L24,24 L0,24 L0,0 L24,0 Z M12.5934901,23.257841 L12.5819402,23.2595131 L12.5108777,23.2950439 L12.4918791,23.2987469 L12.4918791,23.2987469 L12.4767152,23.2950439 L12.4056548,23.2595131 C12.3958229,23.2563662 12.3870493,23.2590235 12.3821421,23.2649074 L12.3780323,23.275831 L12.360941,23.7031097 L12.3658947,23.7234994 L12.3769048,23.7357139 L12.4804777,23.8096931 L12.4953491,23.8136134 L12.4953491,23.8136134 L12.5071152,23.8096931 L12.6106902,23.7357139 L12.6232938,23.7196733 L12.6232938,23.7196733 L12.6266527,23.7031097 L12.609561,23.275831 C12.6075724,23.2657013 12.6010112,23.2592993 12.5934901,23.257841 L12.5934901,23.257841 Z M12.8583906,23.1452862 L12.8445485,23.1473072 L12.6598443,23.2396597 L12.6498822,23.2499052 L12.6498822,23.2499052 L12.6471943,23.2611114 L12.6650943,23.6906389 L12.6699349,23.7034178 L12.6699349,23.7034178 L12.678386,23.7104931 L12.8793402,23.8032389 C12.8914285,23.8068999 12.9022333,23.8029875 12.9078286,23.7952264 L12.9118235,23.7811639 L12.8776777,23.1665331 C12.8752882,23.1545897 12.8674102,23.1470016 12.8583906,23.1452862 L12.8583906,23.1452862 Z M12.1430473,23.1473072 C12.1332178,23.1423925 12.1221763,23.1452606 12.1156365,23.1525954 L12.1099173,23.1665331 L12.0757714,23.7811639 C12.0751323,23.7926639 12.0828099,23.8018602 12.0926481,23.8045676 L12.108256,23.8032389 L12.3092106,23.7104931 L12.3186497,23.7024347 L12.3186497,23.7024347 L12.3225043,23.6906389 L12.340401,23.2611114 L12.337245,23.2485176 L12.337245,23.2485176 L12.3277531,23.2396597 L12.1430473,23.1473072 Z" id="MingCute" fill-rule="nonzero"></path>
                <path d="M4,12 C4,7.58172 7.58172,4 12,4 C17.3671,4 20.4445,8.44465 20.0061,12.3896 C19.8854,13.4758 19.5677,14.1126 19.2862,14.485 C19.0047,14.8575 18.7149,15.0245 18.5527,15.1056 C17.7998,15.4821 17.4199,15.3172 17.2696,15.1982 C17.0795,15.0477 16.898,14.6946 16.9864,14.1644 L16.9918,14.1321 L17.4951,9.09951 C17.55,8.54997 17.1491,8.05992 16.5995,8.00496 C16.1915,7.96416 15.8163,8.17467 15.6276,8.51073 C14.7176,7.58459 13.4482,7 12.0306,7 C9.27906,7 7,9.2287 7,12 C7,14.7736 9.28848,17 12.0377,17 C13.2496,17 14.3885,16.5638 15.2752,15.8239 C15.45,16.1834 15.6999,16.5064 16.028,16.7662 C16.9451,17.4923 18.2001,17.5179 19.4472,16.8944 C19.785,16.7255 20.3572,16.3849 20.8817,15.691 C21.4062,14.9971 21.8385,14.0089 21.9939,12.6104 C22.5556,7.55535 18.6329,2 12,2 C6.47715,2 2,6.47715 2,12 C2,17.5228 6.47715,22 12,22 C13.5947,22 15.1049,21.626 16.445,20.96 C16.9396,20.7142 17.1413,20.114 16.8955,19.6194 C16.6497,19.1249 16.0495,18.9232 15.555,19.169 C14.4852,19.7006 13.279,20 12,20 C7.58172,20 4,16.4183 4,12 Z M9,12 C9,10.353 10.3638,9 12.0306,9 C13.9499,9 15.3943,10.7673 15.0036,12.6192 C14.7128,13.9979 13.4651,15 12.0377,15 C10.3686,15 9,13.6447 9,12 Z" id="形状" fill="#09244B"></path>
            </g>
        </g>
    </g>
</svg>

<svg xmlns="http://www.w3.org/2000/svg" width="24" height="24"><g fill="none" fill-rule="evenodd"><path d="M24 0v24H0V0h24ZM12.593 23.258l-.011.002-.071.035-.02.004-.014-.004-.071-.035c-.01-.004-.019-.001-.024.005l-.004.01-.017.428.005.02.01.013.104.074.015.004.012-.004.104-.074.012-.016.004-.017-.017-.427c-.002-.01-.009-.017-.017-.018Zm.265-.113-.013.002-.185.093-.01.01-.003.011.018.43.005.012.008.007.201.093c.012.004.023 0 .029-.008l.004-.014-.034-.614c-.003-.012-.01-.02-.02-.022Zm-.715.002a.023.023 0 0 0-.027.006l-.006.014-.034.614c0 .012.007.02.017.024l.015-.002.201-.093.01-.008.004-.011.017-.43-.003-.012-.01-.01-.184-.092Z"/><path fill="#09244B" d="M4 12a8 8 0 0 1 8-8c5.367 0 8.445 4.445 8.006 8.39-.12 1.086-.438 1.723-.72 2.095-.281.373-.571.54-.733.62-.753.377-1.133.212-1.283.093-.19-.15-.372-.503-.284-1.034l.006-.032.503-5.032a1 1 0 0 0-1.867-.59A5.025 5.025 0 0 0 12.03 7C9.279 7 7 9.229 7 12c0 2.774 2.288 5 5.038 5 1.212 0 2.35-.436 3.237-1.176.175.36.425.682.753.942.917.726 2.172.752 3.42.128.337-.168.91-.51 1.434-1.203.524-.694.956-1.682 1.112-3.08C22.556 7.554 18.633 2 12 2 6.477 2 2 6.477 2 12s4.477 10 10 10a9.963 9.963 0 0 0 4.445-1.04 1 1 0 0 0-.89-1.791A8 8 0 0 1 4 12Zm5 0c0-1.647 1.364-3 3.03-3 1.92 0 3.364 1.767 2.974 3.62-.291 1.378-1.539 2.38-2.966 2.38C10.368 15 9 13.645 9 12Z"/></g></svg>
